X:684
M:C
L:1/8
K:G Minor
f>c A/B/c/A/ B<GG:|
f|g>f d<f g<g b2|f>cd>f A<F A<f|~g>f d<f g>a b2|f>c A/B/c/A/ B<G G>f|
g>f d<f g<g b2|~f>c d<f A>FA>g|b>ga>^f g>df>c|G>g ^f/g/a/f/ g<GG||

